X: 1627
T: Joe Yates' Varsoviana No 2
B: australian traditional tunes wiki
M:3/4
L:1/8
R: Varsovienne
Q: 1/4=100
K:G
V:1 
|:"G"G2B2d2|"G"g4(3gag|"D"f2"C"e2B2|"D7"c4A2|"D7"D2F2A2|
"D7"f4e>d|1"D7"e2d2c2|"G"B3c BA:|2"D7"e2d2F2|"G"G4g>f||
|:"D7"f>e AB ce|"G"e>d BD Bd|"D"c>B AG Bd|"G"g4g>f|
"D"f>e AB ce|"G"e>d BD Bd|"D7"d>c cA FA|1"G"G4g>f:|2"G"G4||
% abcbook-tune_id 6342d53a4c8e15b8d34023d8


% abcbook-boost 0
% abcbook-tablature 
% abcbook-transpose 
% abcbook-lastupdated 1665324374857
% abcbook-soundfonts 
% abcbook-repeats 1
% NFF Book 2006

